Newaita/actions/32/go-next.svg

<svg height="32" viewBox="0 0 32 32" width="32" xmlns="http://www.w3.org/2000/svg"><g fill="#424242"><path d="m6.613281 14.804688h18.523438c.730469 0 1.324219.589843 1.324219 1.320312s-.59375 1.324219-1.324219 1.324219h-18.523438c-.730469 0-1.320312-.59375-1.320312-1.324219s.589843-1.320312 1.320312-1.320312zm0 0"/><path d="m14.847656 24.546875 9.355469-9.355469c.515625-.515625 1.355469-.515625 1.871094 0s.515625 1.355469 0 1.871094l-9.355469 9.355469c-.515625.515625-1.355469.515625-1.871094 0s-.515625-1.355469 0-1.871094zm0 0"/><path d="m16.71875 5.835938 9.355469 9.355468c.515625.515625.515625 1.351563 0 1.871094-.515625.515625-1.355469.515625-1.871094 0l-9.355469-9.355469c-.515625-.519531-.515625-1.355469 0-1.871093.515625-.519532 1.355469-.519532 1.871094 0zm0 0"/></g></svg>

<svg xmlns="http://www.w3.org/2000/svg" xmlns:xlink="http://www.w3.org/1999/xlink" width="32px" height="32px" viewBox="0 0 32 32" version="1.1">
<g id="surface1">
     <defs>
  <style id="current-color-scheme" type="text/css">
   .ColorScheme-Text { color:#424242; } .ColorScheme-Highlight { color:#eeeeee; }
  </style>
 </defs>
<path style="fill:currentColor" class="ColorScheme-Text" d="M 6.613281 14.804688 L 25.136719 14.804688 C 25.867188 14.804688 26.460938 15.394531 26.460938 16.125 C 26.460938 16.855469 25.867188 17.449219 25.136719 17.449219 L 6.613281 17.449219 C 5.882812 17.449219 5.292969 16.855469 5.292969 16.125 C 5.292969 15.394531 5.882812 14.804688 6.613281 14.804688 Z M 6.613281 14.804688 "/>
     <defs>
  <style id="current-color-scheme" type="text/css">
   .ColorScheme-Text { color:#424242; } .ColorScheme-Highlight { color:#eeeeee; }
  </style>
 </defs>
<path style="fill:currentColor" class="ColorScheme-Text" d="M 14.847656 24.546875 L 24.203125 15.191406 C 24.71875 14.675781 25.558594 14.675781 26.074219 15.191406 C 26.589844 15.707031 26.589844 16.546875 26.074219 17.0625 L 16.71875 26.417969 C 16.203125 26.933594 15.363281 26.933594 14.847656 26.417969 C 14.332031 25.902344 14.332031 25.0625 14.847656 24.546875 Z M 14.847656 24.546875 "/>
     <defs>
  <style id="current-color-scheme" type="text/css">
   .ColorScheme-Text { color:#424242; } .ColorScheme-Highlight { color:#eeeeee; }
  </style>
 </defs>
<path style="fill:currentColor" class="ColorScheme-Text" d="M 16.71875 5.835938 L 26.074219 15.191406 C 26.589844 15.707031 26.589844 16.542969 26.074219 17.0625 C 25.558594 17.578125 24.71875 17.578125 24.203125 17.0625 L 14.847656 7.707031 C 14.332031 7.1875 14.332031 6.351562 14.847656 5.835938 C 15.363281 5.316406 16.203125 5.316406 16.71875 5.835938 Z M 16.71875 5.835938 "/>
</g>
</svg>
